client/src/img/education/icons/calendar.svg

<?xml version="1.0" ?><!DOCTYPE svg  PUBLIC '-//W3C//DTD SVG 1.1//EN'  'http://www.w3.org/Graphics/SVG/1.1/DTD/svg11.dtd'><svg enable-background="new 0 0 32 32" height="32px" id="Layer_1" version="1.1" viewBox="0 0 32 32" width="32px" xml:space="preserve" xmlns="http://www.w3.org/2000/svg" xmlns:xlink="http://www.w3.org/1999/xlink"><g id="calendar_1_"><path d="M29.334,3H25V1c0-0.553-0.447-1-1-1s-1,0.447-1,1v2h-6V1c0-0.553-0.448-1-1-1s-1,0.447-1,1v2H9V1   c0-0.553-0.448-1-1-1S7,0.447,7,1v2H2.667C1.194,3,0,4.193,0,5.666v23.667C0,30.806,1.194,32,2.667,32h26.667   C30.807,32,32,30.806,32,29.333V5.666C32,4.193,30.807,3,29.334,3z M30,29.333C30,29.701,29.701,30,29.334,30H2.667   C2.299,30,2,29.701,2,29.333V5.666C2,5.299,2.299,5,2.667,5H7v2c0,0.553,0.448,1,1,1s1-0.447,1-1V5h6v2c0,0.553,0.448,1,1,1   s1-0.447,1-1V5h6v2c0,0.553,0.447,1,1,1s1-0.447,1-1V5h4.334C29.701,5,30,5.299,30,5.666V29.333z" fill="#333332"/><rect fill="#333332" height="3" width="4" x="7" y="12"/><rect fill="#333332" height="3" width="4" x="7" y="17"/><rect fill="#333332" height="3" width="4" x="7" y="22"/><rect fill="#333332" height="3" width="4" x="14" y="22"/><rect fill="#333332" height="3" width="4" x="14" y="17"/><rect fill="#333332" height="3" width="4" x="14" y="12"/><rect fill="#333332" height="3" width="4" x="21" y="22"/><rect fill="#333332" height="3" width="4" x="21" y="17"/><rect fill="#333332" height="3" width="4" x="21" y="12"/></g></svg>

<svg id="calendar_1_" xmlns="http://www.w3.org/2000/svg" width="32" height="32" viewBox="0 0 32 32">
  <path id="Path_13" data-name="Path 13" d="M29.334,3H25V1a1,1,0,0,0-2,0V3H17V1a1,1,0,0,0-2,0V3H9V1A1,1,0,0,0,7,1V3H2.667A2.666,2.666,0,0,0,0,5.666V29.333A2.667,2.667,0,0,0,2.667,32H29.334A2.666,2.666,0,0,0,32,29.333V5.666A2.665,2.665,0,0,0,29.334,3ZM30,29.333a.667.667,0,0,1-.666.667H2.667A.667.667,0,0,1,2,29.333V5.666A.667.667,0,0,1,2.667,5H7V7A1,1,0,0,0,9,7V5h6V7a1,1,0,0,0,2,0V5h6V7a1,1,0,0,0,2,0V5h4.334A.667.667,0,0,1,30,5.666Z" fill="#328fbb"/>
  <rect id="Rectangle_1" data-name="Rectangle 1" width="4" height="3" transform="translate(7 12)" fill="#328fbb"/>
  <rect id="Rectangle_2" data-name="Rectangle 2" width="4" height="3" transform="translate(7 17)" fill="#328fbb"/>
  <rect id="Rectangle_3" data-name="Rectangle 3" width="4" height="3" transform="translate(7 22)" fill="#328fbb"/>
  <rect id="Rectangle_4" data-name="Rectangle 4" width="4" height="3" transform="translate(14 22)" fill="#328fbb"/>
  <rect id="Rectangle_5" data-name="Rectangle 5" width="4" height="3" transform="translate(14 17)" fill="#328fbb"/>
  <rect id="Rectangle_6" data-name="Rectangle 6" width="4" height="3" transform="translate(14 12)" fill="#328fbb"/>
  <rect id="Rectangle_7" data-name="Rectangle 7" width="4" height="3" transform="translate(21 22)" fill="#328fbb"/>
  <rect id="Rectangle_8" data-name="Rectangle 8" width="4" height="3" transform="translate(21 17)" fill="#328fbb"/>
  <rect id="Rectangle_9" data-name="Rectangle 9" width="4" height="3" transform="translate(21 12)" fill="#328fbb"/>
</svg>
